X: 107201
T: GLOOMY WINTER
Q: "Strathspey."
R: Strathspey.
%R:strathspey
Z: 2017 by John Chambers <jc:trillian.mit.edu>
B: Kerr's Merrie Melodies v.1 p.7 s.2 #1
M: C
L: 1/8
K: Am
|:\
A<A A>uB vA>vG E2 | c<c c>ue vd>vc B2 |\
A<A e>A A>G E>C | D<D E<^G A2 A,2 :|\
C<C C>E D>C B,2 | C>B, A,>C B,>E E2 |
c<c c>ue vd>vc (B<d) | c>A B>G E<A A>B |\
c>c g>c B>c d2 | c>B A<c (Be)e2 |\
E<G G/F/E/D/ E<A B>d | c>A B>G (E<A) A2 |]

%%sep 1 1 500
%%sep 1 1 500

